www/assets/icons/join_inner.svg

<svg xmlns="http://www.w3.org/2000/svg" width="24" height="24" viewBox="0 0 24 24" fill='currentColor'><path d="M12 17.74c1.657 0 3-2.57 3-5.74s-1.343-5.74-3-5.74S9 8.83 9 12s1.343 5.74 3 5.74"/><path d="M9.04 16.87c-.33.08-.68.13-1.04.13-2.76 0-5-2.24-5-5s2.24-5 5-5c.36 0 .71.05 1.04.13.39-.56.88-1.12 1.49-1.63C9.75 5.19 8.9 5 8 5c-3.86 0-7 3.14-7 7s3.14 7 7 7c.9 0 1.75-.19 2.53-.5-.61-.51-1.1-1.07-1.49-1.63M16 5c-.9 0-1.75.19-2.53.5.61.51 1.1 1.07 1.49 1.63.33-.08.68-.13 1.04-.13 2.76 0 5 2.24 5 5s-2.24 5-5 5c-.36 0-.71-.05-1.04-.13-.39.56-.88 1.12-1.49 1.63.78.31 1.63.5 2.53.5 3.86 0 7-3.14 7-7s-3.14-7-7-7"/></svg>

<svg width="24" height="24" viewBox="0 0 24 24" xmlns="http://www.w3.org/2000/svg" fill='currentColor'><path d="M12 17.74C13.6569 17.74 15 15.1701 15 12C15 8.82989 13.6569 6.26 12 6.26C10.3431 6.26 9 8.82989 9 12C9 15.1701 10.3431 17.74 12 17.74Z"/><path d="M9.04 16.87C8.71 16.95 8.36 17 8 17C5.24 17 3 14.76 3 12C3 9.24 5.24 7 8 7C8.36 7 8.71 7.05 9.04 7.13C9.43 6.57 9.92 6.01 10.53 5.5C9.75 5.19 8.9 5 8 5C4.14 5 1 8.14 1 12C1 15.86 4.14 19 8 19C8.9 19 9.75 18.81 10.53 18.5C9.92 17.99 9.43 17.43 9.04 16.87Z"/><path d="M16 5C15.1 5 14.25 5.19 13.47 5.5C14.08 6.01 14.57 6.57 14.96 7.13C15.29 7.05 15.64 7 16 7C18.76 7 21 9.24 21 12C21 14.76 18.76 17 16 17C15.64 17 15.29 16.95 14.96 16.87C14.57 17.43 14.08 17.99 13.47 18.5C14.25 18.81 15.1 19 16 19C19.86 19 23 15.86 23 12C23 8.14 19.86 5 16 5Z"/></svg>
